src/assets/icons/social-youtube.svg

<svg fill="currentColor" viewBox="0 0 24 24" xmlns="http://www.w3.org/2000/svg" id="youtube"><path d="M21.593 7.203a2.506 2.506 0 0 0-1.762-1.766C18.265 5.007 12 5 12 5s-6.264-.007-7.831.404a2.56 2.56 0 0 0-1.766 1.778c-.413 1.566-.417 4.814-.417 4.814s-.004 3.264.406 4.814c.23.857.905 1.534 1.763 1.765 1.582.43 7.83.437 7.83.437s6.265.007 7.831-.403a2.515 2.515 0 0 0 1.767-1.763c.414-1.565.417-4.812.417-4.812s.02-3.265-.407-4.831zM9.996 15.005l.005-6 5.207 3.005-5.212 2.995z"/></svg>

<svg fill="currentColor" width="100%" height="100%" viewBox="0 0 24 24" version="1.1" xmlns="http://www.w3.org/2000/svg" style="fill-rule:evenodd;clip-rule:evenodd;stroke-linejoin:round;stroke-miterlimit:2;" id="social-youtube"> <g transform="matrix(1.19915,0,0,1.19915,-2.38151,-2.39702)"> <path d="M21.593,7.203C21.361,6.344 20.689,5.67 19.831,5.437C18.265,5.007 12,5 12,5C12,5 5.736,4.993 4.169,5.404C3.312,5.648 2.641,6.323 2.403,7.182C1.99,8.748 1.986,11.996 1.986,11.996C1.986,11.996 1.982,15.26 2.392,16.81C2.622,17.667 3.297,18.344 4.155,18.575C5.737,19.005 11.985,19.012 11.985,19.012C11.985,19.012 18.25,19.019 19.816,18.609C20.675,18.376 21.348,17.704 21.583,16.846C21.997,15.281 22,12.034 22,12.034C22,12.034 22.02,8.769 21.593,7.203ZM9.996,15.005L10.001,9.005L15.208,12.01L9.996,15.005Z" style="fill-rule:nonzero;"/> </g>
</svg>
